newicons/heliboard_alt.svg

<?xml version="1.0" encoding="UTF-8"?><svg id="b" xmlns="http://www.w3.org/2000/svg" viewBox="0 0 48 48"><defs><style>.r{fill:none;stroke:#fff;stroke-linecap:round;stroke-linejoin:round;}</style></defs><path id="c" class="r" d="M13.1676,18.573h-5.5276c-1.1476,0-2.0778.9302-2.0779,2.0778v19.7714c0,1.1476.9303,2.0778,2.0779,2.0778h32.72c1.1476,0,2.0778-.9302,2.0779-2.0778v-19.7714c0-1.1476-.9303-2.0778-2.0779-2.0778h-5.284"/><rect id="d" class="r" x="14.0996" y="35.7634" width="20.0445" height="3.327" rx=".4208" ry=".4208"/><rect id="e" class="r" x="10.7333" y="29.78" width="3.3663" height="3.3663" rx=".4208" ry=".4208"/><rect id="f" class="r" x="16.586" y="29.78" width="3.3663" height="3.3663" rx=".4208" ry=".4208"/><path id="g" class="r" d="M25.8051,30.3553v2.37c0,.2324-.1884.4208-.4208.4208h-2.5243c-.2323,0-.4207-.1884-.4207-.4207h0v-2.3701"/><rect id="h" class="r" x="28.2915" y="29.78" width="3.3663" height="3.3663" rx=".4208" ry=".4208"/><rect id="i" class="r" x="34.1442" y="29.78" width="3.3663" height="3.3663" rx=".4208" ry=".4208"/><rect id="j" class="r" x="10.7333" y="23.7965" width="3.3663" height="3.3663" rx=".4208" ry=".4208"/><path id="k" class="r" d="M18.2755,27.1628h-1.2687c-.2324,0-.4208-.1884-.4208-.4208v-.8747"/><path id="l" class="r" d="M31.6578,25.8673v.8747c0,.2324-.1884.4208-.4208.4208h-1.2687"/><rect id="m" class="r" x="34.1442" y="23.7965" width="3.3663" height="3.3663" rx=".4208" ry=".4208"/><path id="n" class="r" d="M34.2525,23.8775l-10.1306,7.7685-10.1306-7.7685c-.5194-.3982-.8239-1.0155-.8237-1.67V7.1832c0-.9296.7536-1.6832,1.6832-1.6832h18.5422c.9296,0,1.6832.7536,1.6832,1.6832h0v15.0248c0,.6543-.3044,1.2714-.8237,1.6695Z"/><line id="o" class="r" x1="20.025" y1="10" x2="20.025" y2="22"/><line id="p" class="r" x1="27.975" y1="10" x2="27.975" y2="22"/><line id="q" class="r" x1="20.025" y1="15.9773" x2="27.975" y2="15.9773"/></svg>

<?xml version="1.0" encoding="UTF-8" standalone="no"?>
<svg
   viewBox="0 0 48 48"
   version="1.1"
   id="svg9"
   sodipodi:docname="heliboard_alt.svg"
   inkscape:version="1.3.2 (091e20ef0f, 2023-11-25, custom)"
   xmlns:inkscape="http://www.inkscape.org/namespaces/inkscape"
   xmlns:sodipodi="http://sodipodi.sourceforge.net/DTD/sodipodi-0.dtd"
   xmlns="http://www.w3.org/2000/svg"
   xmlns:svg="http://www.w3.org/2000/svg">
  <sodipodi:namedview
     id="namedview9"
     pagecolor="#ffffff"
     bordercolor="#666666"
     borderopacity="1.0"
     inkscape:showpageshadow="2"
     inkscape:pageopacity="0.0"
     inkscape:pagecheckerboard="0"
     inkscape:deskcolor="#d1d1d1"
     inkscape:zoom="3.1267378"
     inkscape:cx="-78.996071"
     inkscape:cy="-22.227639"
     inkscape:window-width="1920"
     inkscape:window-height="1050"
     inkscape:window-x="0"
     inkscape:window-y="0"
     inkscape:window-maximized="1"
     inkscape:current-layer="svg9" />
  <defs
     id="defs1">
    <style
       id="style1">.a{fill:none;stroke:#fff;stroke-linecap:round;stroke-linejoin:round;}</style>
  </defs>
  <path
     class="a"
     d="M13.1676,18.573H7.64a2.0779,2.0779,0,0,0-2.0779,2.0778V40.4222A2.0779,2.0779,0,0,0,7.64,42.5H40.36a2.0779,2.0779,0,0,0,2.0779-2.0778V20.6508A2.0779,2.0779,0,0,0,40.36,18.573h-5.284"
     id="path2"
     style="stroke:#ffffff;stroke-opacity:1" />
  <rect
     class="a"
     x="14.0996"
     y="35.7634"
     width="20.0445"
     height="3.327"
     rx="0.4208"
     id="rect2"
     style="stroke:#ffffff;stroke-opacity:1" />
  <rect
     class="a"
     x="10.7333"
     y="29.78"
     width="3.3663"
     height="3.3663"
     rx="0.4208"
     id="rect3"
     style="stroke:#ffffff;stroke-opacity:1" />
  <rect
     class="a"
     x="16.586"
     y="29.78"
     width="3.3663"
     height="3.3663"
     rx="0.4208"
     id="rect4"
     style="stroke:#ffffff;stroke-opacity:1" />
  <path
     class="a"
     d="M25.8051,30.3553v2.37a.4208.4208,0,0,1-.4208.4208H22.86a.4207.4207,0,0,1-.4207-.4208v-2.37"
     id="path4"
     style="stroke:#ffffff;stroke-opacity:1" />
  <rect
     class="a"
     x="28.2915"
     y="29.78"
     width="3.3663"
     height="3.3663"
     rx="0.4208"
     id="rect5"
     style="stroke:#ffffff;stroke-opacity:1" />
  <rect
     class="a"
     x="34.1442"
     y="29.78"
     width="3.3663"
     height="3.3663"
     rx="0.4208"
     id="rect6"
     style="stroke:#ffffff;stroke-opacity:1" />
  <rect
     class="a"
     x="10.7333"
     y="23.7965"
     width="3.3663"
     height="3.3663"
     rx="0.4208"
     id="rect7"
     style="stroke:#ffffff;stroke-opacity:1" />
  <path
     class="a"
     d="M18.2755,27.1628H17.0068a.4208.4208,0,0,1-.4208-.4208v-.8747"
     id="path7"
     style="stroke:#ffffff;stroke-opacity:1" />
  <path
     class="a"
     d="M31.6578,25.8673v.8747a.4208.4208,0,0,1-.4208.4208H29.9683"
     id="path8"
     style="stroke:#ffffff;stroke-opacity:1" />
  <rect
     class="a"
     x="34.1442"
     y="23.7965"
     width="3.3663"
     height="3.3663"
     rx="0.4208"
     id="rect8"
     style="stroke:#ffffff;stroke-opacity:1" />
  <path
     class="a"
     d="M34.2525,23.8775,24.1219,31.646,13.9913,23.8775a2.1036,2.1036,0,0,1-.8237-1.67V7.1832A1.6832,1.6832,0,0,1,14.8508,5.5H33.393a1.6832,1.6832,0,0,1,1.6832,1.6832V22.208A2.1036,2.1036,0,0,1,34.2525,23.8775Z"
     id="path9"
     style="stroke:#ffffff;stroke-opacity:1" />
  <line
     class="t"
     x1="20.024998"
     y1="10"
     x2="20.024998"
     y2="21.999998"
     id="line365"
     style="fill:none;stroke:#ffffff;stroke-width:1;stroke-linecap:round;stroke-linejoin:round;stroke-opacity:1;stroke-dasharray:none" />
  <line
     class="t"
     x1="27.975002"
     y1="10"
     x2="27.975002"
     y2="21.999998"
     id="line366"
     style="fill:none;stroke:#ffffff;stroke-width:1;stroke-linecap:round;stroke-linejoin:round;stroke-opacity:1;stroke-dasharray:none" />
  <line
     class="t"
     x1="20.024998"
     y1="15.977346"
     x2="27.975002"
     y2="15.977346"
     id="line367"
     style="fill:none;stroke:#ffffff;stroke-width:1;stroke-linecap:round;stroke-linejoin:round;stroke-opacity:1;stroke-dasharray:none" />
</svg>
